X: 1
T: the Beggarman
P: piffero primo a0548
O: unk
%R: reel
F: http://ancients.sudburymuster.org/mus/med/pdf/mtnmanC0.pdf
Z: 2020 John Chambers <jc:trillian.mit.edu>
N: The rhythm was garbled at the end of both parts; semi-fixed by adjusting the rests.
M: 2/4
L: 1/16
K: Bm
A2 |:\
F2B2 B2de | fgfd e2de | f2B2 BcdB | cdcB A3F |\
F2B2 B2de | fgfd e2de | f3g  agfe | d2B2 B3A :|
|:\
a2aa a2fg | a2gf e2de | f2B2 BcdB | cdcB A3F |\
F2B2 B2de | fgfd e2de | f3g  agfe | d2B2 B2z2 :|
